svgs/sharp-light/transporter-2.svg

<svg xmlns="http://www.w3.org/2000/svg" viewBox="0 0 512 512"><!--! Font Awesome Pro 6.6.0 by @fontawesome - https://fontawesome.com License - https://fontawesome.com/license (Commercial License) Copyright 2024 Fonticons, Inc. --><path d="M64 16l0 16 16 0 16 0 0 32L80 64 64 64l0 16 0 16L32 96l0-16 0-16L16 64 0 64 0 32l16 0 16 0 0-16L32 0 64 0l0 16zM480 336l0 16 16 0 16 0 0 32-16 0-16 0 0 16 0 16-32 0 0-16 0-16-16 0-16 0 0-32 16 0 16 0 0-16 0-16 32 0 0 16zM256 80a24 24 0 1 0 0-48 24 24 0 1 0 0 48zm0-80a56 56 0 1 1 0 112A56 56 0 1 1 256 0zM96 464l0-16 16 0 288 0 16 0 0 16 0 32 0 16-32 0 0-16 0-16-256 0 0 16 0 16-32 0 0-16 0-32zM383.7 224l-40.2 0L320 193l0 31-32 0 0-48-64 0 0 48-32 0 0-31-23.5 31-40.2 0 55.9-73.7L189 144l7.9 0 118.2 0 7.9 0 4.8 6.3L383.7 224zM96 256l16 0 288 0 16 0 0 32-16 0-288 0-16 0 0-32zm64 64l16 0 160 0 16 0 0 32-16 0-160 0-16 0 0-32zm0 64l16 0 160 0 16 0 0 32-16 0-160 0-16 0 0-32z"/></svg>

<svg xmlns="http://www.w3.org/2000/svg" viewBox="0 0 512 512"><!--! Font Awesome Pro 6.4.0 by @fontawesome - https://fontawesome.com License - https://fontawesome.com/license (Commercial License) Copyright 2023 Fonticons, Inc. --><path d="M64 16V32H80 96V64H80 64V80 96H32V80 64H16 0V32H16 32V16 0H64V16zM480 336v16h16 16v32H496 480v16 16H448V400 384H432 416V352h16 16V336 320h32v16zM256 80a24 24 0 1 0 0-48 24 24 0 1 0 0 48zm0-80a56 56 0 1 1 0 112A56 56 0 1 1 256 0zM96 464V448h16H400h16v16 32 16H384V496 480H128v16 16H96V496 464zM383.7 224H343.5L320 193v31H288V176H224v48H192V193l-23.5 31H128.3l55.9-73.7L189 144h7.9H315.1 323l4.8 6.3L383.7 224zM96 256h16H400h16v32H400 112 96V256zm64 64h16H336h16v32H336 176 160V320zm0 64h16H336h16v32H336 176 160V384z"/></svg>
